public/img/common/icon-facebook.svg

<svg fill="none" height="42" viewBox="0 0 42 42" width="42" xmlns="http://www.w3.org/2000/svg"><path d="m35.7885.5h-28.70002c-3.39655 0-6.150003 2.75345-6.150003 6.15v28.7c0 3.3966 2.753453 6.15 6.150003 6.15h28.70002c3.3965 0 6.15-2.7534 6.15-6.15v-28.7c0-3.39655-2.7535-6.15-6.15-6.15z" fill="#fff"/><path d="m29.4143 26.9259.9129-5.9258h-5.6856v-3.8437c0-1.6176.7928-3.2032 3.3393-3.2032h2.5865v-5.04487s-2.3463-.4004-4.5885-.4004c-4.6846 0-7.7435 2.83477-7.7435 7.97577v4.5164h-5.2051v5.9258h5.2051v14.5742h6.4062v-14.5742z" fill="#003"/></svg>

<svg width="42" height="42" viewBox="0 0 42 42" fill="none" xmlns="http://www.w3.org/2000/svg">
<path d="M35.7885 0.5H7.08848C3.69193 0.5 0.938477 3.25345 0.938477 6.65V35.35C0.938477 38.7466 3.69193 41.5 7.08848 41.5H35.7885C39.185 41.5 41.9385 38.7466 41.9385 35.35V6.65C41.9385 3.25345 39.185 0.5 35.7885 0.5Z" fill="white"/>
<path d="M29.4143 26.9259L30.3272 21.0001H24.6416V17.1564C24.6416 15.5388 25.4344 13.9532 27.9809 13.9532H30.5674V8.90833C30.5674 8.90833 28.2211 8.50793 25.9789 8.50793C21.2943 8.50793 18.2354 11.3427 18.2354 16.4837V21.0001H13.0303V26.9259H18.2354V41.5001H24.6416V26.9259H29.4143Z" fill="#000033"/>
</svg>
